X:46
T:Je ne veux de Tircis. [FJ46]
S:Festin joyeux.  Music page 22-23.
Z:transcribed by Eric Conrad, 2021.
N:NB The meter is given simply as "3".
N:NB Repeat marks were added at beginning and end.
N:NB The MS repeat mark is 4 vertical dots enclosed by bars on both sides.
N:NB The plus signs seem to indicate some kind of roll or trill.
N:NB1 MS has trilled "B" (quarter), here trilled "B3/2" (dotted quarter).
N:NB2 MS has "|E::E2B/c/|", here "|1E:|2E-|:EB/c/|"
N:NB3 MS has "eE/c", here "e>E/c" (which is same as "e3/2 E/2 c").
N:NB4 MS ends with "A2||", here "|1A:|2A3|]"
M:3/4
L:1/4
K:Am % staff EGBdf; empty sig ending on A
|: AE | cde | "^+"d>ed | A^GA | "_NB1""^+"B3/2 c/d/e/ | A^G"^+"B | GG"^+"^F |1 \
  "_NB2"E :|2 E- ||
|: EB/c/ | d2B | "_NB3"e>Ec | "^+"^G2 B/c/ | d3/2 z c/4A/4 | ^GA>B | c"^+"B2 |1 "_NB4"A :|2 A3 |]

